src/sections/Meshery/Meshery-platforms/supported-icons/minikube_white.svg

<svg width="170" height="165" viewBox="0 0 170 165" fill="none" xmlns="http://www.w3.org/2000/svg">
<g clip-path="url(#clip0_1_2)">
<mask id="mask0_1_2" style="mask-type:alpha" maskUnits="userSpaceOnUse" x="0" y="0" width="170" height="165">
<path fill-rule="evenodd" clip-rule="evenodd" d="M169.1 0H0V164.6H169.1V0Z" fill="white"/>
</mask>
<g mask="url(#mask0_1_2)">
<path fill-rule="evenodd" clip-rule="evenodd" d="M84.7001 0C82.4001 0 80.1001 0.5 77.9001 1.5L22.6001 28C18.2001 30.1 15.2001 33.9 14.1001 38.6L0.400055 97.9C-0.699946 102.6 0.400055 107.4 3.50005 111.2L41.8001 158.7C44.8001 162.4 49.2001 164.5 53.9001 164.5H115.2C119.9 164.5 124.4 162.4 127.3 158.7L165.6 111.2C168.7 107.5 169.8 102.6 168.7 97.9L155 38.6C153.9 33.9 150.8 30.1 146.5 28L91.4001 1.5C89.3001 0.5 87.0001 0 84.7001 0ZM84.7001 5.1C86.2001 5.1 87.8001 5.4 89.2001 6.1L144.5 32.4C147.3 33.8 149.5 36.4 150.2 39.5L163.9 98.9C164.7 102.1 163.9 105.3 161.8 107.9L123.5 155.4C121.5 157.9 118.5 159.3 115.3 159.3H54.0001C50.8001 159.3 47.8001 157.9 45.8001 155.4L7.50005 107.9C5.50005 105.4 4.80005 102.1 5.40005 98.9L19.1001 39.5C19.9001 36.3 21.9001 33.7 24.8001 32.4L80.1001 6C81.5001 5.5 83.2001 5.1 84.7001 5.1Z" fill="white"/>
</g>
<path fill-rule="evenodd" clip-rule="evenodd" d="M98.8001 115.9C97.0001 117.1 94.5001 116.7 93.0001 114.9C92.5001 114.4 92.3001 113.8 92.2001 113.1L90.7001 86.3C102 87.6 112.4 92.7 120.3 100.6L98.8001 115.9ZM76.5001 112.5C76.3001 114.8 74.5001 116.8 72.1001 116.8C71.4001 116.8 70.6001 116.6 70.1001 116.3L48.2001 100.7C54.9001 94 63.3001 89.4 72.7001 87.2C74.5001 86.9 76.2001 86.5 78.0001 86.2L76.5001 112.5ZM137.9 101.4L139.5 99.9V99.6C139.5 98.8 139.7 98 140.3 97.1C142.3 95.3 144.7 93.8 147.7 92C148.2 91.7 148.7 91.5 149.2 91.2C150.2 90.7 151 90.2 152 89.6C152.2 89.4 152.5 89.3 152.8 88.9C153 88.7 153.1 88.7 153.1 88.6C155.4 86.6 155.9 83.3 154.2 81.2C153.4 80 151.9 79.4 150.4 79.4C149.1 79.4 147.9 79.9 146.8 80.7L146.5 81C146.2 81.2 146 81.5 145.7 81.7C144.9 82.5 144.2 83.2 143.6 84C143.3 84.3 142.9 84.8 142.5 85.2C140.2 87.7 138.1 89.6 135.9 91.1C135.4 91.4 134.9 91.6 134.4 91.6C134.1 91.6 133.7 91.6 133.4 91.4H133.1L131.1 92.7C129 90.4 126.7 88.4 124.4 86.5C114.5 78.8 102.5 74 90.1001 72.9L89.9001 70.8L89.6001 70.5C89.1001 70 88.4001 69.5 88.3001 68.4C88.1001 65.8 88.5001 62.8 88.8001 59.5V59.3C88.8001 58.8 89.0001 58.1 89.1001 57.7C89.3001 56.7 89.4001 55.7 89.6001 54.6V53.6V53C89.6001 50 87.3001 47.6 84.5001 47.6C83.2001 47.6 81.9001 48.3 80.9001 49.2C79.9001 50.1 79.4001 51.5 79.4001 53V53.3V54.3C79.4001 55.5 79.6001 56.4 79.9001 57.4C80.1001 57.9 80.1001 58.4 80.2001 59V59.2C80.5001 62.5 81.0001 65.4 80.7001 68.1C80.5001 69.3 79.9001 69.7 79.4001 70.2C79.2001 70.4 79.2001 70.4 79.1001 70.5L78.9001 72.6C76.0001 73 73.0001 73.3 70.1001 74C57.4001 76.8 46.3001 83.2 37.6001 92.4L36.0001 91.2H35.7001C35.4001 91.2 35.0001 91.4 34.7001 91.4C34.2001 91.4 33.7001 91.2 33.2001 90.9C31.1001 89.4 28.9001 87.3 26.6001 84.8C26.3001 84.5 25.9001 84 25.5001 83.7C24.8001 82.9 24.2001 82.2 23.4001 81.4C23.2001 81.2 22.9001 81.1 22.6001 80.7C22.4001 80.5 22.3001 80.5 22.3001 80.4C21.3001 79.6 20.0001 79.1 18.7001 79.1C17.2001 79.1 15.7001 79.8 14.9001 80.9C13.3001 83 13.7001 86.3 16.0001 88.3C16.2001 88.3 16.2001 88.5 16.3001 88.5C16.6001 88.7 16.8001 89 17.1001 89.2C18.1001 89.9 18.9001 90.4 19.9001 90.8C20.4001 91 20.9001 91.3 21.4001 91.6C24.4001 93.4 26.8001 94.9 28.8001 96.7C29.6001 97.5 29.6001 98.3 29.6001 99.2V99.5L31.2001 101C30.9001 101.5 30.5001 101.8 30.4001 102.3C28.5001 105.3 26.8001 108.5 25.5001 111.8L34.9001 123.4C36.2001 118.9 38.0001 114.6 40.5001 110.6L60.1001 128C61.9001 129.5 62.1001 132.3 60.6001 134.1C60.1001 134.8 59.4001 135.3 58.6001 135.4L47.3001 138.7L52.9001 145.6C54.9001 148.1 57.8001 149.4 60.9001 149.4L109 149.3C112.1 149.3 115 147.9 116.9 145.5L122.2 138.9L110.7 135.6C108.4 134.9 107.1 132.6 107.6 130.3C107.8 129.6 108.1 129 108.6 128.5L128.5 110.6C130.9 114.6 132.8 119.1 134.2 123.9L143.8 111.9C141.9 108.2 140.1 104.7 137.9 101.4Z" fill="white"/>
</g>
<defs>
<clipPath id="clip0_1_2">
<rect width="169.1" height="164.6" fill="white"/>
</clipPath>
</defs>
</svg>

<?xml version="1.0" encoding="utf-8"?>
<!-- Generator: Adobe Illustrator 26.0.2, SVG Export Plug-In . SVG Version: 6.00 Build 0)  -->
<svg version="1.1" id="Layer_1" xmlns="http://www.w3.org/2000/svg" xmlns:xlink="http://www.w3.org/1999/xlink" x="0px" y="0px"
	 viewBox="0 0 169.1 164.6" style="enable-background:new 0 0 169.1 164.6;" xml:space="preserve">
<style type="text/css">
	.st0{filter:url(#Adobe_OpacityMaskFilter);}
	.st1{fill-rule:evenodd;clip-rule:evenodd;fill:#FFF;}
	.st2{mask:url(#mask-2_00000049219296922345946450000003159706255118513801_);fill-rule:evenodd;clip-rule:evenodd;fill:#FFF;}
	.st3{fill-rule:evenodd;clip-rule:evenodd;fill:#212121;}
	.st4{fill-rule:evenodd;clip-rule:evenodd;fill:#212121;}
	.st5{fill-rule:evenodd;clip-rule:evenodd;fill:#FFF;}
</style>
<desc>Created with Sketch.</desc>
<g id="Page-1">
	<g id="logo">
		<g id="outline">
			<g id="Clip-2">
			</g>
			<defs>
				<filter id="Adobe_OpacityMaskFilter" filterUnits="userSpaceOnUse" x="0" y="0" width="169.1" height="164.6">
					<feColorMatrix  type="matrix" values="1 0 0 0 0  0 1 0 0 0  0 0 1 0 0  0 0 0 1 0"/>
				</filter>
			</defs>
			
				<mask maskUnits="userSpaceOnUse" x="0" y="0" width="169.1" height="164.6" id="mask-2_00000049219296922345946450000003159706255118513801_">
				<g class="st0">
					<polygon id="path-1_00000100350177711797001680000011236571930023923135_" class="st1" points="169.1,0 0,0 0,164.6 
						169.1,164.6 					"/>
				</g>
			</mask>
			<path id="Fill-1" class="st2" d="M84.7,0L84.7,0c-2.3,0-4.6,0.5-6.8,1.5L22.6,28c-4.4,2.1-7.4,5.9-8.5,10.6L0.4,97.9
				c-1.1,4.7,0,9.5,3.1,13.3l38.3,47.5c3,3.7,7.4,5.8,12.1,5.8h61.3c4.7,0,9.2-2.1,12.1-5.8l38.3-47.5c3.1-3.7,4.2-8.6,3.1-13.3
				L155,38.6c-1.1-4.7-4.2-8.5-8.5-10.6L91.4,1.5C89.3,0.5,87,0,84.7,0 M84.7,5.1c1.5,0,3.1,0.3,4.5,1l55.3,26.3
				c2.8,1.4,5,4,5.7,7.1l13.7,59.4c0.8,3.2,0,6.4-2.1,9l-38.3,47.5c-2,2.5-5,3.9-8.2,3.9H54c-3.2,0-6.2-1.4-8.2-3.9L7.5,107.9
				c-2-2.5-2.7-5.8-2.1-9l13.7-59.4c0.8-3.2,2.8-5.8,5.7-7.1L80.1,6C81.5,5.5,83.2,5.1,84.7,5.1"/>
		</g>
		<path id="Fill-4" class="st3" d="M52.7,145.5c2,2.5,4.9,3.8,8,3.8l48.1-0.1c3.1,0,6-1.4,7.9-3.8l29.3-36.9
			c0.8-1.2,0.8-3.4,0.8-5.3V51.6l-63,36.3v0l-63-36.3v51.5c0,1.9,0.7,3.8,1.9,5.4L52.7,145.5z"/>
		<polygon id="Fill-6" class="st4" points="83.8,87.9 146.8,51.6 83.7,15.3 20.8,51.6 		"/>
		<path id="Fill-8" class="st5" d="M98.8,115.9c-1.8,1.2-4.3,0.8-5.8-1c-0.5-0.5-0.7-1.1-0.8-1.8l-1.5-26.8
			c11.3,1.3,21.7,6.4,29.6,14.3L98.8,115.9z M76.5,112.5c-0.2,2.3-2,4.3-4.4,4.3c-0.7,0-1.5-0.2-2-0.5l-21.9-15.6
			c6.7-6.7,15.1-11.3,24.5-13.5c1.8-0.3,3.5-0.7,5.3-1L76.5,112.5z M137.9,101.4l1.6-1.5v-0.3c0-0.8,0.2-1.6,0.8-2.5
			c2-1.8,4.4-3.3,7.4-5.1c0.5-0.3,1-0.5,1.5-0.8c1-0.5,1.8-1,2.8-1.6c0.2-0.2,0.5-0.3,0.8-0.7c0.2-0.2,0.3-0.2,0.3-0.3
			c2.3-2,2.8-5.3,1.1-7.4c-0.8-1.2-2.3-1.8-3.8-1.8c-1.3,0-2.5,0.5-3.6,1.3l-0.3,0.3c-0.3,0.2-0.5,0.5-0.8,0.7
			c-0.8,0.8-1.5,1.5-2.1,2.3c-0.3,0.3-0.7,0.8-1.1,1.2c-2.3,2.5-4.4,4.4-6.6,5.9c-0.5,0.3-1,0.5-1.5,0.5c-0.3,0-0.7,0-1-0.2h-0.3
			l-2,1.3c-2.1-2.3-4.4-4.3-6.7-6.2c-9.9-7.7-21.9-12.5-34.3-13.6l-0.2-2.1l-0.3-0.3c-0.5-0.5-1.2-1-1.3-2.1
			c-0.2-2.6,0.2-5.6,0.5-8.9v-0.2c0-0.5,0.2-1.2,0.3-1.6c0.2-1,0.3-2,0.5-3.1v-1V53c0-3-2.3-5.4-5.1-5.4c-1.3,0-2.6,0.7-3.6,1.6
			s-1.5,2.3-1.5,3.8v0.3v1c0,1.2,0.2,2.1,0.5,3.1c0.2,0.5,0.2,1,0.3,1.6v0.2c0.3,3.3,0.8,6.2,0.5,8.9c-0.2,1.2-0.8,1.6-1.3,2.1
			c-0.2,0.2-0.2,0.2-0.3,0.3l-0.2,2.1C76,73,73,73.3,70.1,74c-12.7,2.8-23.8,9.2-32.5,18.4l-1.6-1.2h-0.3c-0.3,0-0.7,0.2-1,0.2
			c-0.5,0-1-0.2-1.5-0.5c-2.1-1.5-4.3-3.6-6.6-6.1c-0.3-0.3-0.7-0.8-1.1-1.1c-0.7-0.8-1.3-1.5-2.1-2.3c-0.2-0.2-0.5-0.3-0.8-0.7
			c-0.2-0.2-0.3-0.2-0.3-0.3c-1-0.8-2.3-1.3-3.6-1.3c-1.5,0-3,0.7-3.8,1.8c-1.6,2.1-1.2,5.4,1.1,7.4c0.2,0,0.2,0.2,0.3,0.2
			c0.3,0.2,0.5,0.5,0.8,0.7c1,0.7,1.8,1.2,2.8,1.6c0.5,0.2,1,0.5,1.5,0.8c3,1.8,5.4,3.3,7.4,5.1c0.8,0.8,0.8,1.6,0.8,2.5v0.3
			l1.6,1.5c-0.3,0.5-0.7,0.8-0.8,1.3c-1.9,3-3.6,6.2-4.9,9.5l9.4,11.6c1.3-4.5,3.1-8.8,5.6-12.8l19.6,17.4c1.8,1.5,2,4.3,0.5,6.1
			c-0.5,0.7-1.2,1.2-2,1.3l-11.3,3.3l5.6,6.9c2,2.5,4.9,3.8,8,3.8l48.1-0.1c3.1,0,6-1.4,7.9-3.8l5.3-6.6l-11.5-3.3
			c-2.3-0.7-3.6-3-3.1-5.3c0.2-0.7,0.5-1.3,1-1.8l19.9-17.9c2.4,4,4.3,8.5,5.7,13.3l9.6-12C141.9,108.2,140.1,104.7,137.9,101.4
			L137.9,101.4z"/>
		<g id="Clip-13">
		</g>
	</g>
</g>
</svg>
